X: 30368
T: Old Pigeon On The Gate, The
R: reel
M: 4/4
K: Gminor
dGGF ~G3e|dGGd cedc|AFFE FGAB|c~F3 cFAc|
dGGF GedG|Gdce dcAG|FGAc faga|fdcA GABc:|
|:dggf gagf|d~g3 bgag|dffe fgfd|c~f3 cfaf|
dggf gagf|dgfg bgag|f~c3 gceg|1 fdcA GABc:|2 fdcA G4||

